!!!Genre:	Skotshne
!!!Mode:	Freygish
!!!Edition:	2001
!!!Listening/dance:	listening
!!!Free rhythm?:	No
!!!Secondary Modes:	All freygish
!!!One_Mode:	yes
!!!Orig_tonic: unknown
**kern
*I"P1
*clefG2
*k[b-e-a-]
*G:frey
*M2/4
*>A
(8cc
=1
8bnL)
8cc'
8dd'
8ee-'J
=2
(16ddLL
16ee-J)
8cc'J
8r
8cc
=3
(16bnLL
16ccJ)
8a-'J
8r
8a-
=4
(16gLL
16a-J)
8fJ
8r
(8cc
=5
8bnL)
8cc
8dd
8ee-J
=6
8ddL
8cc
8bn
8ccJ
=7
[2ff
=8
8.ffL]
32ee-LL
32ffJJJ
8ee-L
8ddJ
=9
8bn'L
(8ccJ
8ddL
8ee-J
=10
(16qqdd/LL
16qqee-/JJ
8ddL)
8ccJ
8r
8cc
=11
(16qqbn/LL
16qqcc/JJ
8bnL)
8a-J
8r
8a-
=12
*^
8g	16gLL
.	16a-JJ
4f	8ryy
.	4ryy
8r	.
*v	*v
=13
(8.ffL
16ddJk)
(16ee-LL
16dd
16ee-
16ccJJ
=14
8.ddL)
(16bnJk
16ccLL
16b
16cc
16a-JJ
=15
8.bnL)
(16gJk
16a-LL
16g
16a-
16fJJ)
=16
2g
=17||
*>B
8bn'
4a-
8g
=18
(16a-LL
16g
16f
16enJJ
4f)
=19
8bn'
4a-
8g
=20
16a-LL
16g
16f
16enJJ
4f
=21
8.ffL
16ddJk
16ee-LL
16dd
16ee-
16ccJJ
=22
8.ddL
16bnJk
16ccLL
16b
16cc
16a-JJ
=23
8.bnL
16gJk
16a-LL
16g
16a-
16fJJ
=24||
4g
8r
=||
*-
